public/avatar/body/162.svg

<svg xmlns:xlink="http://www.w3.org/1999/xlink" height="82" width="84.85" xmlns="http://www.w3.org/2000/svg"><g transform="translate(37.4 42.25)"><use height="38" transform="translate(-11.95 -17.45)" width="32.05" xlink:href="#a"/><use height="38.95" transform="translate(-12.45 -17.95)" width="33.05" xlink:href="#b"/><use height="24.65" transform="translate(-19.4 2.85)" width="47.15" xlink:href="#c"/></g><defs><path d="M27.35 7.4q2.15 4.15 3.55 8.75 1.45 4.7 1.15 9.5-.35 4.95-4.2 8.1-3.8 3.2-8.75 4.05l-2.6.2q-3.6 0-7.05-1.15-4.65-1.6-7.1-5.5Q-.2 27.4.05 23q.2-4.4 2-9.3Q3.85 8.75 7 5.05 10.1 1.3 14.7.1l1.8-.1q1.9.05 3.7.8 4.75 2.05 7.15 6.6" fill="#bc8f88" fill-rule="evenodd" transform="translate(-.05)" id="d"/><path d="M27.35 7.4Q24.95 2.85 20.2.8 17.55-.3 14.7.1 10.1 1.3 7 5.05q-3.15 3.7-4.95 8.65-1.8 4.9-2 9.3-.25 4.4 2.3 8.35 2.45 3.9 7.1 5.5 4.65 1.55 9.65.95 4.95-.85 8.75-4.05 3.85-3.15 4.2-8.1.3-4.8-1.15-9.5-1.4-4.6-3.55-8.75Z" fill="none" stroke="#803333" stroke-linecap="round" stroke-linejoin="round" transform="translate(.45 .5)" id="e"/><use height="38" width="32.05" xlink:href="#d" id="a"/><use height="38.95" width="33.05" xlink:href="#e" id="b"/><g id="c" fill-rule="evenodd"><path d="m21.45 5-.4 8.55q3.45 1.75 6 4.7 1.35 1.5.05 3l-.8.55q-1.45.6-2.9.6-4.1-.05-7.1 2.45l-2.15 1.75q-1.1.8-2.5.8-2.25.05-4.35-.95l-7.3.2q-1.75.9-3.45.85-2.25-.45-4.1-2l-2.95-1.9q-.9-.55-1.9-.7l-2.8-.55-2.85-.45q-1.45-.5-1.35-2 .1-1.65 1.45-2.65l5.1-3.7q-.2-4.65.05-9.25.05-.6.6-.95l1.2-.15q.75 0 1.3.55l1.5 2.05.75 1.6q3.4 2.55 7.65 2.65l3.8.25 2-.35q3.35.55 6.55-.6l2-1.2 1.35-1.5 1.05-2q.7-1.45 2.15-1.75l1.1-.05q.8.25 1.05.9l.2 1.25m-2.2 9.75.9-.85.5-8.55-.05-.45q-.2-.8-1.05-1.1l-1.2.25-2.1 4.15-.1.15-.05.05-.25.55q-.95 2-2.6 3.55-1.45 1.35-3.35 1.75L6.25 15l-1.15.1-3.85-.15-1.65-.3q-4.1-.75-6.3-4.25-1.45-2.25-2.5-4.85-.3-.7-.75-1.25l-.7-.55-1.1.1-.8 1.4.45 8.35q2.65 2.7 6.25 3.8 2.15.8 4.35.8-6.45.15-11.4-3.85l-.6.45-3.8 2.6-1.25 1.7-.1.55-.05.15q.3 1.45 1.85 1.6l1.95.2q3.55.15 6.2 2.1 2.05 1.5 4.4 2.5l1.25.25 1.85-.3 3.3-1.2 1.9-.3 1.8.3h.1l2.7 1q1.35.6 2.7.5 1.35.05 2.3-.7 2.75-2.15 6-3.3l3.3-.85h.25l.25-.05 1.1-.1.25-.05.4-.15.4-.15.35-.15h.05l.05-.05.45-.35.3-.75-.1-.7-1.3-1.7-4.3-2.95-.9.9q-2.4 1.95-5.5 2.4l-1.1.15-3.9.3 3.8-.6q2.45-.45 4.55-1.95l1.25-.9M6.55 11.2l1.05 1.1h.2l1.4 1.15.85.55q2.15-.85 3.65-2.35l1.75-2.8-2.25.75-4.35.8-2.3.3q-.35.05 0 .5M.9 12.3h.05l.25-.25.8-.85q.3-.3.05-.5l-2.4.15q-3.8-.3-6.85-2.3l.05.05 1.65 2.85.1.1.1.1q1.65 1.6 3.7 2.4l1.1-.65.15-.1 1.25-1m2.35-1h-.1l1.55.2q.55.05.65-.5l-.15-.15h-.35L3.1 10.7q-.35.2.15.6m-.5.3Q1.9 13.05.5 13.8l-.85.55q4.4 1.2 9.05-.05l-3.15-2.5H4.1l-1.35-.2" fill="#1d1d24" transform="translate(19.4 -2.85)"/><path d="m-17.3 17.4.05.85q1.4 1.1 3.5.85l-1.1.8-.55.45q-1.5-.05-2.65-.85l-.5-.35v-.05l1.25-1.7m6.9 2.4q.85.35 1.65.85l3.1 1.95q.95.6 2.1.9 1.1.45 2.25 0l.25-.15-1.2 1.75q-1.8.25-3.3-.7l-3.9-2.6-.05-.1-1-1.95.1.05m18.35 3.15q2 1.35 4.2.35l2.3-1.25.1-.05-.25 2-.75.45-5.2.15-.4-1.65m16.5-4.05.7-.25.3-.7-.05-.45-.05-.1 1.3 1.7-.05.05-1.25.85v-.05l-.9-1.05M7.8 12.3l4.85-.35-.3.4q-1.25 1.4-3.15 1.1L7.8 12.3m-6.9 0-1.25 1-.15.1h-.75q-1.7 0-2.8-1.45l4.95.35m-6.2-.65-.1-.1.85.25-.75-.15M2 11.2l-.8.85.75-.85H2" fill="#f7ef00" transform="translate(19.4 -2.85)"/><path d="m16.25 8.2-.05.15h-.05l.1-.15m9.1 11.8 1.25-.85.15.65-.3.75-.45.35-.65-.9m-2.45 1.6-3.3.85q-3.25 1.15-6 3.3-.95.75-2.3.7-1.35.1-2.7-.5l-.3-1.35h.05l5.2-.15.75-.45-.3 1.35q3.15-2.7 7.1-3.6l1.8-.15m-25.95 4.85-1.25-.25q-2.35-1-4.4-2.5-2.65-1.95-6.2-2.1l-1.95-.2q-1.55-.15-1.85-1.6l.05-.15.1-.5.5.35q1.15.8 2.65.85l-1.1 1.05 1.6.15q3.25 0 5.85 1.75l-.4-1.5 3.9 2.6q1.5.95 3.3.7l-.05.1h.1l-.85 1.25m28.6-5.35.4-.15h-.05l-.35.15m-19-9.9q2.55.4 5.05-.55l1.9-.75-.1 1.05-.55.85h.2l-.4.15-4.85.35h-.2l-1.05-1.1m-5.35.85-.25.25H.9l-4.95-.35-.5-.15-.85-.25-.1-.1 1.4.4-.8-1.95 1.95.7q2.4 1 4.9.6l-.75.85m2.05-.75 1.6-.45h.35l.15.15q-.1.55-.65.5l-1.55-.2h.1" fill="#c51e1b" transform="translate(19.4 -2.85)"/><path d="m12.65 11.95.4-.15.65-.15q-1.5 1.5-3.65 2.35l-.85-.55q1.9.3 3.15-1.1l.3-.4M-.5 13.4l-1.1.65q-2.05-.8-3.7-2.4l.75.15.5.15q1.1 1.45 2.8 1.45h.75" fill="#ff9500" transform="translate(19.4 -2.85)"/><path d="m16.2 8.35-.35.6.25-.55.1-.05m-3.15 3.45h-.2l.55-.85.1-1.05 1.95-1.05-1.75 2.8-.65.15m-18.55-.35L-7.15 8.6l2.25 1.3.8 1.95-1.4-.4" fill="#7c1e1b" transform="translate(19.4 -2.85)"/><path d="m13.5 9.9-1.9.75q-2.5.95-5.05.55-.35-.45 0-.5l2.3-.3 4.35-.8 2.25-.75L13.5 9.9m2.65-1.55h.05l-.1.05.05-.05m-23.3.25-.05-.05q3.05 2 6.85 2.3l2.4-.15q.25.2-.05.5h-.05q-2.5.4-4.9-.6l-1.95-.7-2.25-1.3m12 2.25-1.6.45q-.5-.4-.15-.6l1.75.15" fill="#ff4221" transform="translate(19.4 -2.85)"/><path d="m16.25 8.2 2.1-4.15 1.2-.25q.85.3 1.05 1.1l.05.45-.5 8.55-.9.85-.5-.3.2-8.25-2 4.9q-.6 1.5-1.6 2.85L13.3 16.4l.15 1.2-3.8.6 3.9-.3.45.9q.95 1.5.45 3.25l-2.3 1.25q-2.2 1-4.2-.35l-.65-1.7-1.05-1.75q-1.1-1.45-2.7-.8l-1.45 1q-2 1.6-3.4 3.8-1.15.45-2.25 0-1.15-.3-2.1-.9l-3.1-1.95q-.8-.5-1.65-.85-.8-1.35-2.45-1.05l-.75.3-.15.05q-2.1.25-3.5-.85l-.05-.85 3.8-2.6.6-.45q4.95 4 11.4 3.85-2.2 0-4.35-.8-3.6-1.1-6.25-3.8l-.45-8.35.8-1.4 1.1-.1.7.55q.45.55.75 1.25 1.05 2.6 2.5 4.85 2.2 3.5 6.3 4.25l1.65.3-2.9-.25q1.15.4 1.95 1.25l1 1.1.6.7 1.3-.25q1.25-1.05 2.95-1.35 3.45-.4 6.3-2.2l1.8-1.4Q16.5 10.5 17.6 7.7L19.1 4l-1.9 3.05q-.8 1.9-2.05 3.6-1.05 1.5-2.5 2.5-3.1 2.05-6.95 1.95h-.6l1.15-.1 3.65-.75q1.9-.4 3.35-1.75 1.65-1.55 2.6-3.55l.35-.6.05-.15m-29.75 6.6-2.45 1.75q-.65.5-.65 1.15l5.45-.2q-.55-.65-1.8-.45-1.05.05-1.4-.8l.85-1.45m38.85 2.6.05.1.05.45-.3.7-.7.25-4.3-3.55.9-.9 4.3 2.95m1.25 1.75.05-.05.1.7-.15-.65m-45.25.5.1-.55v.05l-.1.5m29.6-.35-.8.6q-.95.9-1.25 2.3l2.3.75q.3-.6.2-1.4l-.45-2.25M-6.5 20.55l.05.1 3.3 2.25q1.35-.55 2.1-1.95L0 19.25q-2.9-.35-5.65.7l-.85.6" fill="#57d900" transform="translate(19.4 -2.85)"/><path d="m-13.6 19.05.75-.3q1.65-.3 2.45 1.05l-.1-.05-.1-.15q-1.35-.6-3-.55m12.3 4.45q1.4-2.2 3.4-3.8l1.45-1q1.6-.65 2.7.8l1.05 1.75.65 1.7L.8 22.7l-.5.15-1.35.5-.25.15m15.75-1.45q.5-1.75-.45-3.25l-.45-.9 1.1-.15q3.1-.45 5.5-2.4l4.3 3.55-4.2.4-3.7 1.35-2 1.35-.1.05m-1-4.45-.15-1.2 2.05-2.45q1-1.35 1.6-2.85l2-4.9-.2 8.25.5.3-1.25.9q-2.1 1.5-4.55 1.95" fill="#00c500" transform="translate(19.4 -2.85)"/><path d="m-13.75 19.1.15-.05q1.65-.05 3 .55l.1.15 1 1.95-2-.7-3.8-.7.45-.4 1.1-.8m38.2-.2.9 1.05-2.45.45q-3.4-.05-6.3 1.95L14.3 24l.25-2 2-1.35 3.7-1.35 4.2-.4m-16.1 5.7H8.3q-2.5-1.25-5.2-1l-1.95.55-3.35 1.05h-.1l.05-.1 1.2-1.75 1.35-.5.5-.15 7.15.25.4 1.65" fill="#f7b800" transform="translate(19.4 -2.85)"/><path d="M25.35 19.95V20l.65.9-.05.05-.4.15-.4.15-.4.15-.25.05-1.1.1-.25.05h-.25l-1.8.15q-3.95.9-7.1 3.6l.3-1.35 2.3-1.65q2.9-2 6.3-1.95l2.45-.45m-16.75 6-2.7-1h-.1l-1.8-.3-1.9.3-3.3 1.2-1.85.3.85-1.25 3.35-1.05 1.95-.55q2.7-.25 5.2 1l.3 1.35M26 20.9l-.05.05.05-.05m-35.45.9.4 1.5q-2.6-1.75-5.85-1.75l-1.6-.15 1.1-1.05.55-.45-.45.4 3.8.7 2 .7.05.1" fill="#881e1b" transform="translate(19.4 -2.85)"/><path d="M5.1 15.1h.6q3.85.1 6.95-1.95 1.45-1 2.5-2.5 1.25-1.7 2.05-3.6L19.1 4l-1.5 3.7q-1.1 2.8-3.35 4.85l-1.8 1.4q-2.85 1.8-6.3 2.2-1.7.3-2.95 1.35l-1.3.25-.6-.7-1-1.1q-.8-.85-1.95-1.25l2.9.25 3.85.15m-18.6-.3-.85 1.45q.35.85 1.4.8 1.25-.2 1.8.45l-5.45.2q0-.65.65-1.15l2.45-1.75m24.45 4.5.45 2.25q.1.8-.2 1.4l-2.3-.75q.3-1.4 1.25-2.3l.8-.6M-6.5 20.55l.85-.6q2.75-1.05 5.65-.7l-1.05 1.7q-.75 1.4-2.1 1.95l-3.3-2.25-.05-.1" fill="#8cfc42" transform="translate(19.4 -2.85)"/></g></defs></svg>

<?xml version="1.0" encoding="UTF-8" standalone="no"?>
<svg xmlns:xlink="http://www.w3.org/1999/xlink" height="82.0px" width="84.85px" xmlns="http://www.w3.org/2000/svg">
  <g transform="matrix(1.0, 0.0, 0.0, 1.0, 37.4, 42.25)">
    <use height="38.0" transform="matrix(1.0, 0.0, 0.0, 1.0, -11.95, -17.45)" width="32.05" xlink:href="#sprite0"/>
    <use height="38.95" transform="matrix(1.0, 0.0, 0.0, 1.0, -12.45, -17.95)" width="33.05" xlink:href="#sprite1"/>
    <use height="24.65" transform="matrix(1.0, 0.0, 0.0, 1.0, -19.4, 2.85)" width="47.15" xlink:href="#shape2"/>
  </g>
  <defs>
    <g id="sprite0" transform="matrix(1.0, 0.0, 0.0, 1.0, -0.05, 0.0)">
      <use height="38.0" transform="matrix(1.0, 0.0, 0.0, 1.0, 0.05, 0.0)" width="32.05" xlink:href="#shape0"/>
    </g>
    <g id="shape0" transform="matrix(1.0, 0.0, 0.0, 1.0, -0.05, 0.0)">
      <path d="M27.35 7.4 Q29.5 11.55 30.9 16.15 32.35 20.85 32.05 25.65 31.7 30.6 27.85 33.75 24.05 36.95 19.1 37.8 L16.5 38.0 Q12.9 38.0 9.45 36.85 4.8 35.25 2.35 31.35 -0.2 27.4 0.05 23.0 0.25 18.6 2.05 13.7 3.85 8.75 7.0 5.05 10.1 1.3 14.7 0.1 L16.5 0.0 Q18.4 0.05 20.2 0.8 24.95 2.85 27.35 7.4" fill="#bc8f88" fill-rule="evenodd" stroke="none"/>
    </g>
    <g id="sprite1" transform="matrix(1.0, 0.0, 0.0, 1.0, 0.45, 0.5)">
      <use height="38.95" transform="matrix(1.0, 0.0, 0.0, 1.0, -0.45, -0.5)" width="33.05" xlink:href="#shape1"/>
    </g>
    <g id="shape1" transform="matrix(1.0, 0.0, 0.0, 1.0, 0.45, 0.5)">
      <path d="M27.35 7.4 Q24.95 2.85 20.2 0.8 17.55 -0.3 14.7 0.1 10.1 1.3 7.0 5.05 3.85 8.75 2.05 13.7 0.25 18.6 0.05 23.0 -0.2 27.4 2.35 31.35 4.8 35.25 9.45 36.85 14.1 38.4 19.1 37.8 24.05 36.95 27.85 33.75 31.7 30.6 32.05 25.65 32.35 20.85 30.9 16.15 29.5 11.55 27.35 7.4 Z" fill="none" stroke="#803333" stroke-linecap="round" stroke-linejoin="round" stroke-width="1.0"/>
    </g>
    <g id="shape2" transform="matrix(1.0, 0.0, 0.0, 1.0, 19.4, -2.85)">
      <path d="M21.45 5.0 L21.05 13.55 Q24.5 15.3 27.05 18.25 28.4 19.75 27.1 21.25 L26.3 21.8 Q24.85 22.4 23.4 22.4 19.3 22.35 16.3 24.85 L14.15 26.6 Q13.05 27.4 11.65 27.4 9.4 27.45 7.3 26.45 L0.0 26.65 Q-1.75 27.55 -3.45 27.5 -5.7 27.05 -7.55 25.5 L-10.5 23.6 Q-11.4 23.05 -12.4 22.9 L-15.2 22.35 -18.05 21.9 Q-19.5 21.4 -19.4 19.9 -19.3 18.25 -17.95 17.25 L-12.85 13.55 Q-13.05 8.9 -12.8 4.3 -12.75 3.7 -12.2 3.35 L-11.0 3.2 Q-10.25 3.2 -9.7 3.75 L-8.2 5.8 -7.45 7.4 Q-4.05 9.95 0.2 10.05 L4.0 10.3 6.0 9.95 Q9.35 10.5 12.55 9.35 L14.55 8.15 15.9 6.65 16.95 4.65 Q17.65 3.2 19.1 2.9 L20.2 2.85 Q21.0 3.1 21.25 3.75 L21.45 5.0 M19.25 14.75 L20.15 13.9 20.65 5.35 20.6 4.9 Q20.4 4.1 19.55 3.8 L18.35 4.05 16.25 8.2 16.15 8.35 16.1 8.4 15.85 8.95 Q14.9 10.95 13.25 12.5 11.8 13.85 9.9 14.25 L6.25 15.0 5.1 15.1 1.25 14.95 -0.4 14.65 Q-4.5 13.9 -6.7 10.4 -8.15 8.15 -9.2 5.55 -9.5 4.85 -9.95 4.3 L-10.65 3.75 -11.75 3.85 -12.55 5.25 -12.1 13.6 Q-9.45 16.3 -5.85 17.4 -3.7 18.2 -1.5 18.2 -7.95 18.35 -12.9 14.35 L-13.5 14.8 -17.3 17.4 -18.55 19.1 -18.65 19.65 -18.7 19.8 Q-18.4 21.25 -16.85 21.4 L-14.9 21.6 Q-11.35 21.75 -8.7 23.7 -6.65 25.2 -4.3 26.2 L-3.05 26.45 -1.2 26.15 2.1 24.95 4.0 24.65 5.8 24.95 5.9 24.95 8.6 25.95 Q9.95 26.55 11.3 26.45 12.65 26.5 13.6 25.75 16.35 23.6 19.6 22.45 L22.9 21.6 23.15 21.6 23.4 21.55 24.5 21.45 24.75 21.4 25.15 21.25 25.55 21.1 25.9 20.95 25.95 20.95 26.0 20.9 26.45 20.55 26.75 19.8 26.65 19.1 25.35 17.4 21.05 14.45 20.15 15.35 Q17.75 17.3 14.65 17.75 L13.55 17.9 9.65 18.2 13.45 17.6 Q15.9 17.15 18.0 15.65 L19.25 14.75 M6.55 11.2 L7.6 12.3 7.8 12.3 9.2 13.45 10.05 14.0 Q12.2 13.15 13.7 11.65 L15.45 8.85 13.2 9.6 8.85 10.4 6.55 10.7 Q6.2 10.75 6.55 11.2 M0.9 12.3 L0.95 12.3 1.2 12.05 2.0 11.2 Q2.3 10.9 2.05 10.7 L-0.35 10.85 Q-4.15 10.55 -7.2 8.55 L-7.15 8.6 -5.5 11.45 -5.4 11.55 -5.3 11.65 Q-3.65 13.25 -1.6 14.05 L-0.5 13.4 -0.35 13.3 0.9 12.3 M3.25 11.3 L3.15 11.3 4.7 11.5 Q5.25 11.55 5.35 11.0 L5.2 10.85 4.85 10.85 3.1 10.7 Q2.75 10.9 3.25 11.3 M2.75 11.6 Q1.9 13.05 0.5 13.8 L-0.35 14.35 Q4.05 15.55 8.7 14.3 L5.55 11.8 4.1 11.8 2.75 11.6" fill="#1d1d24" fill-rule="evenodd" stroke="none"/>
      <path d="M-17.3 17.4 L-17.25 18.25 Q-15.85 19.35 -13.75 19.1 L-14.85 19.9 -15.4 20.35 Q-16.9 20.3 -18.05 19.5 L-18.55 19.15 -18.55 19.1 -17.3 17.4 M-10.4 19.8 Q-9.55 20.15 -8.75 20.65 L-5.65 22.6 Q-4.7 23.2 -3.55 23.5 -2.45 23.95 -1.3 23.5 L-1.05 23.35 -2.25 25.1 Q-4.05 25.35 -5.55 24.4 L-9.45 21.8 -9.5 21.7 -10.5 19.75 -10.4 19.8 M7.95 22.95 Q9.95 24.3 12.15 23.3 L14.45 22.05 14.55 22.0 14.3 24.0 13.55 24.45 8.35 24.6 7.95 22.95 M24.45 18.9 L25.15 18.65 25.45 17.95 25.4 17.5 25.35 17.4 26.65 19.1 26.6 19.15 25.35 20.0 25.35 19.95 24.45 18.9 M7.8 12.3 L12.65 11.95 12.35 12.35 Q11.1 13.75 9.2 13.45 L7.8 12.3 M0.9 12.3 L-0.35 13.3 -0.5 13.4 -1.25 13.4 Q-2.95 13.4 -4.05 11.95 L0.9 12.3 M-5.3 11.65 L-5.4 11.55 -4.55 11.8 -5.3 11.65 M2.0 11.2 L1.2 12.05 1.95 11.2 2.0 11.2" fill="#f7ef00" fill-rule="evenodd" stroke="none"/>
      <path d="M16.25 8.2 L16.2 8.35 16.15 8.35 16.25 8.2 M25.35 20.0 L26.6 19.15 26.75 19.8 26.45 20.55 26.0 20.9 25.35 20.0 M22.9 21.6 L19.6 22.45 Q16.35 23.6 13.6 25.75 12.65 26.5 11.3 26.45 9.95 26.55 8.6 25.95 L8.3 24.6 8.35 24.6 13.55 24.45 14.3 24.0 14.0 25.35 Q17.15 22.65 21.1 21.75 L22.9 21.6 M-3.05 26.45 L-4.3 26.2 Q-6.65 25.2 -8.7 23.7 -11.35 21.75 -14.9 21.6 L-16.85 21.4 Q-18.4 21.25 -18.7 19.8 L-18.65 19.65 -18.55 19.15 -18.05 19.5 Q-16.9 20.3 -15.4 20.35 L-16.5 21.4 -14.9 21.55 Q-11.65 21.55 -9.05 23.3 L-9.45 21.8 -5.55 24.4 Q-4.05 25.35 -2.25 25.1 L-2.3 25.2 -2.2 25.2 -3.05 26.45 M25.55 21.1 L25.95 20.95 25.9 20.95 25.55 21.1 M6.55 11.2 Q9.1 11.6 11.6 10.65 L13.5 9.9 13.4 10.95 12.85 11.8 13.05 11.8 12.65 11.95 7.8 12.3 7.6 12.3 6.55 11.2 M1.2 12.05 L0.95 12.3 0.9 12.3 -4.05 11.95 -4.55 11.8 -5.4 11.55 -5.5 11.45 -4.1 11.85 -4.9 9.9 -2.95 10.6 Q-0.55 11.6 1.95 11.2 L1.2 12.05 M3.25 11.3 L4.85 10.85 5.2 10.85 5.35 11.0 Q5.25 11.55 4.7 11.5 L3.15 11.3 3.25 11.3" fill="#c51e1b" fill-rule="evenodd" stroke="none"/>
      <path d="M12.65 11.95 L13.05 11.8 13.7 11.65 Q12.2 13.15 10.05 14.0 L9.2 13.45 Q11.1 13.75 12.35 12.35 L12.65 11.95 M-0.5 13.4 L-1.6 14.05 Q-3.65 13.25 -5.3 11.65 L-4.55 11.8 -4.05 11.95 Q-2.95 13.4 -1.25 13.4 L-0.5 13.4" fill="#ff9500" fill-rule="evenodd" stroke="none"/>
      <path d="M16.2 8.35 L15.85 8.95 16.1 8.4 16.2 8.35 M13.05 11.8 L12.85 11.8 13.4 10.95 13.5 9.9 15.45 8.85 13.7 11.65 13.05 11.8 M-5.5 11.45 L-7.15 8.6 -4.9 9.9 -4.1 11.85 -5.5 11.45" fill="#7c1e1b" fill-rule="evenodd" stroke="none"/>
      <path d="M13.5 9.9 L11.6 10.65 Q9.1 11.6 6.55 11.2 6.2 10.75 6.55 10.7 L8.85 10.4 13.2 9.6 15.45 8.85 13.5 9.9 M16.15 8.35 L16.2 8.35 16.1 8.4 16.15 8.35 M-7.15 8.6 L-7.2 8.55 Q-4.15 10.55 -0.35 10.85 L2.05 10.7 Q2.3 10.9 2.0 11.2 L1.95 11.2 Q-0.55 11.6 -2.95 10.6 L-4.9 9.9 -7.15 8.6 M4.85 10.85 L3.25 11.3 Q2.75 10.9 3.1 10.7 L4.85 10.85" fill="#ff4221" fill-rule="evenodd" stroke="none"/>
      <path d="M16.25 8.2 L18.35 4.05 19.55 3.8 Q20.4 4.1 20.6 4.9 L20.65 5.35 20.15 13.9 19.25 14.75 18.75 14.45 18.95 6.2 16.95 11.1 Q16.35 12.6 15.35 13.95 L13.3 16.4 13.45 17.6 9.65 18.2 13.55 17.9 14.0 18.8 Q14.95 20.3 14.45 22.05 L12.15 23.3 Q9.95 24.3 7.95 22.95 L7.3 21.25 6.25 19.5 Q5.15 18.05 3.55 18.7 L2.1 19.7 Q0.1 21.3 -1.3 23.5 -2.45 23.95 -3.55 23.5 -4.7 23.2 -5.65 22.6 L-8.75 20.65 Q-9.55 20.15 -10.4 19.8 -11.2 18.45 -12.85 18.75 L-13.6 19.05 -13.75 19.1 Q-15.85 19.35 -17.25 18.25 L-17.3 17.4 -13.5 14.8 -12.9 14.35 Q-7.95 18.35 -1.5 18.2 -3.7 18.2 -5.85 17.4 -9.45 16.3 -12.1 13.6 L-12.55 5.25 -11.75 3.85 -10.65 3.75 -9.95 4.3 Q-9.5 4.85 -9.2 5.55 -8.15 8.15 -6.7 10.4 -4.5 13.9 -0.4 14.65 L1.25 14.95 -1.65 14.7 Q-0.5 15.1 0.3 15.95 L1.3 17.05 1.9 17.75 3.2 17.5 Q4.45 16.45 6.15 16.15 9.6 15.75 12.45 13.95 L14.25 12.55 Q16.5 10.5 17.6 7.7 L19.1 4.0 17.2 7.05 Q16.4 8.95 15.15 10.65 14.1 12.15 12.65 13.15 9.55 15.2 5.7 15.1 L5.1 15.1 6.25 15.0 9.9 14.25 Q11.8 13.85 13.25 12.5 14.9 10.95 15.85 8.95 L16.2 8.35 16.25 8.2 M-13.5 14.8 L-15.95 16.55 Q-16.6 17.05 -16.6 17.7 L-11.15 17.5 Q-11.7 16.85 -12.95 17.05 -14.0 17.1 -14.35 16.25 L-13.5 14.8 M25.35 17.4 L25.4 17.5 25.45 17.95 25.15 18.65 24.45 18.9 20.15 15.35 21.05 14.45 25.35 17.4 M26.6 19.15 L26.65 19.1 26.75 19.8 26.6 19.15 M-18.65 19.65 L-18.55 19.1 -18.55 19.15 -18.65 19.65 M10.95 19.3 L10.15 19.9 Q9.2 20.8 8.9 22.2 L11.2 22.95 Q11.5 22.35 11.4 21.55 L10.95 19.3 M-6.5 20.55 L-6.45 20.65 -3.15 22.9 Q-1.8 22.35 -1.05 20.95 L0.0 19.25 Q-2.9 18.9 -5.65 19.95 L-6.5 20.55" fill="#57d900" fill-rule="evenodd" stroke="none"/>
      <path d="M-13.6 19.05 L-12.85 18.75 Q-11.2 18.45 -10.4 19.8 L-10.5 19.75 -10.6 19.6 Q-11.95 19.0 -13.6 19.05 M-1.3 23.5 Q0.1 21.3 2.1 19.7 L3.55 18.7 Q5.15 18.05 6.25 19.5 L7.3 21.25 7.95 22.95 0.8 22.7 0.3 22.85 -1.05 23.35 -1.3 23.5 M14.45 22.05 Q14.95 20.3 14.0 18.8 L13.55 17.9 14.65 17.75 Q17.75 17.3 20.15 15.35 L24.45 18.9 20.25 19.3 16.55 20.65 14.55 22.0 14.45 22.05 M13.45 17.6 L13.3 16.4 15.35 13.95 Q16.35 12.6 16.95 11.1 L18.95 6.2 18.75 14.45 19.25 14.75 18.0 15.65 Q15.9 17.15 13.45 17.6" fill="#00c500" fill-rule="evenodd" stroke="none"/>
      <path d="M-13.75 19.1 L-13.6 19.05 Q-11.95 19.0 -10.6 19.6 L-10.5 19.75 -9.5 21.7 -11.5 21.0 -15.3 20.3 -14.85 19.9 -13.75 19.1 M24.45 18.9 L25.35 19.95 22.9 20.4 Q19.5 20.35 16.6 22.35 L14.3 24.0 14.55 22.0 16.55 20.65 20.25 19.3 24.45 18.9 M8.35 24.6 L8.3 24.6 Q5.8 23.35 3.1 23.6 L1.15 24.15 -2.2 25.2 -2.3 25.2 -2.25 25.1 -1.05 23.35 0.3 22.85 0.8 22.7 7.95 22.95 8.35 24.6" fill="#f7b800" fill-rule="evenodd" stroke="none"/>
      <path d="M25.35 19.95 L25.35 20.0 26.0 20.9 25.95 20.95 25.55 21.1 25.15 21.25 24.75 21.4 24.5 21.45 23.4 21.55 23.15 21.6 22.9 21.6 21.1 21.75 Q17.15 22.65 14.0 25.35 L14.3 24.0 16.6 22.35 Q19.5 20.35 22.9 20.4 L25.35 19.95 M8.6 25.95 L5.9 24.95 5.8 24.95 4.0 24.65 2.1 24.95 -1.2 26.15 -3.05 26.45 -2.2 25.2 1.15 24.15 3.1 23.6 Q5.8 23.35 8.3 24.6 L8.6 25.95 M26.0 20.9 L25.95 20.95 26.0 20.9 M-9.45 21.8 L-9.05 23.3 Q-11.65 21.55 -14.9 21.55 L-16.5 21.4 -15.4 20.35 -14.85 19.9 -15.3 20.3 -11.5 21.0 -9.5 21.7 -9.45 21.8" fill="#881e1b" fill-rule="evenodd" stroke="none"/>
      <path d="M5.1 15.1 L5.7 15.1 Q9.55 15.2 12.65 13.15 14.1 12.15 15.15 10.65 16.4 8.95 17.2 7.05 L19.1 4.0 17.6 7.7 Q16.5 10.5 14.25 12.55 L12.45 13.95 Q9.6 15.75 6.15 16.15 4.45 16.45 3.2 17.5 L1.9 17.75 1.3 17.05 0.3 15.95 Q-0.5 15.1 -1.65 14.7 L1.25 14.95 5.1 15.1 M-13.5 14.8 L-14.35 16.25 Q-14.0 17.1 -12.95 17.05 -11.7 16.85 -11.15 17.5 L-16.6 17.7 Q-16.6 17.05 -15.95 16.55 L-13.5 14.8 M10.95 19.3 L11.4 21.55 Q11.5 22.35 11.2 22.95 L8.9 22.2 Q9.2 20.8 10.15 19.9 L10.95 19.3 M-6.5 20.55 L-5.65 19.95 Q-2.9 18.9 0.0 19.25 L-1.05 20.95 Q-1.8 22.35 -3.15 22.9 L-6.45 20.65 -6.5 20.55" fill="#8cfc42" fill-rule="evenodd" stroke="none"/>
    </g>
  </defs>
</svg>
